X:1
T:Title
%%score ( 1 2 ) ( 3 4 )
L:1/8
M:2/2
K:A
V:1 treble nm="Bright Piano"
V:2 treble 
V:3 bass nm="Bright Piano"
V:4 bass 
V:1
 z4 z2[Q:1/4=100] [CE]2 | [CE]4 [CE]4 | D2- [DG]2 [CA]2 [DB]2 | [Ec]6 [CA]2 | D2- [Dd]2 c2 B2 | %5
 A2 G2 F2 G2 | [CA]4 z2 [A,C]2 | [G,B,]4 [A,C]4 | [B,D]2 [CE]2 [DF]2 [DG]2 | %9
 [CA]2 [DB]2 [Cc]2 [Ec]2 | B2 c2 d2 B2 | [Ee]6 [EA]2 | G2 A2 d2 c2 | [Ec]4 [EB]2 E2 | [EA]4 [EA]4 | %15
 [E=G]4 [EG]4 | [DF]6 [DG]2 | [CA]4 [CA]4 | c2 B2 A2 B2 | [Ec]6 [EA]2 | [FB]4 [FB]4 | %21
 E4 [^DF]2 [=DG]2 |[M:3/4] [CA]4 z2 |] %23
V:2
 x8 | x8 | .F4 z4 | x8 | .G4 D4 | D4 D4 | x8 | x8 | x8 | x8 | E4 E4 | x8 | E4 E4 | x8 | x8 | x8 | %16
 x8 | x8 | E4 E4 | x8 | x8 | x8 |[M:3/4] x6 |] %23
V:3
 z4 z2 [A,,A,]2 | [A,,A,]4 [A,,A,]4 | [A,,A,]4 [A,,E,]4 | [A,,A,]6 [A,,A,]2 | [E,B,]4 [E,G,]4 | %5
 [E,B,]4 [E,B,]4 | [A,,A,]4 z2 [A,,E,]2 | E,4 E,4 | E,2 E,2 E,2 E,2 | %9
 E,2- [G,,E,]2 [A,,E,]2 [A,,A,]2 | G,2 A,2 B,2 G,2 | [C,A,]4 [C,A,]4 | %12
 [D,B,]2 [C,A,]2 [B,,G,]2 [A,,A,]2 | [E,A,]4 [E,G,]2 [D,G,]2 | [C,A,]4 [C,A,]4 | [C,A,]4 [C,A,]4 | %16
 [D,A,]6 [B,,B,]2 | [F,A,]4 [F,A,]4 | A,2 G,2 F,2 G,2 | [A,,A,]6 [C,A,]2 | [D,A,]4 [D,A,]4 | %21
 G,4 A,2 [E,B,]2 |[M:3/4] [A,,A,]4 z2 |] %23
V:4
 x8 | x8 | x8 | x8 | x8 | x8 | x8 | x8 | x8 | .A,,4 z4 | E,4 E,4 | x8 | x8 | x8 | x8 | x8 | x8 | %17
 x8 | E,4 E,4 | x8 | x8 | E,8 |[M:3/4] x6 |] %23

